src/pos-icons/presentation-play.svg

<svg height="24" viewBox="0 0 24 24" width="24" xmlns="http://www.w3.org/2000/svg"><path d="m2 3h8a2 2 0 0 1 2-2 2 2 0 0 1 2 2h8v2h-1v11h-5.75l1.75 6h-2l-1.75-6h-2.5l-1.75 6h-2l1.75-6h-5.75v-11h-1zm3 2v9h14v-9zm6.85 6.85c-.09.09-.21.15-.35.15a.5.5 0 0 1 -.5-.5v-4a.5.5 0 0 1 .5-.5c.14 0 .26.06.35.15l1.4 1.39c.32.32.64.64.64.96s-.32.64-.64.96z"/></svg>

<?xml version="1.0" encoding="UTF-8"?><!DOCTYPE svg PUBLIC "-//W3C//DTD SVG 1.1//EN" "http://www.w3.org/Graphics/SVG/1.1/DTD/svg11.dtd"><svg xmlns="http://www.w3.org/2000/svg" xmlns:xlink="http://www.w3.org/1999/xlink" version="1.1" id="mdi-presentation-play" width="24" height="24" viewBox="0 0 24 24"><path d="M2,3H10A2,2 0 0,1 12,1A2,2 0 0,1 14,3H22V5H21V16H15.25L17,22H15L13.25,16H10.75L9,22H7L8.75,16H3V5H2V3M5,5V14H19V5H5M11.85,11.85C11.76,11.94 11.64,12 11.5,12A0.5,0.5 0 0,1 11,11.5V7.5A0.5,0.5 0 0,1 11.5,7C11.64,7 11.76,7.06 11.85,7.15L13.25,8.54C13.57,8.86 13.89,9.18 13.89,9.5C13.89,9.82 13.57,10.14 13.25,10.46L11.85,11.85Z" /></svg>
